svg/fluentui-system-icons/ic_fluent_multiplier_1_5x_20_filled.svg

<svg width="20" height="20" viewBox="0 0 20 20" fill="none" xmlns="http://www.w3.org/2000/svg">
<path d="M4.45735 6.02926C4.77873 6.12166 5.00011 6.41566 5.00011 6.75006V13.25C5.00011 13.6642 4.66433 14 4.25011 14C3.8359 14 3.50011 13.6642 3.50011 13.25V8.80502C3.25857 8.99595 2.97586 9.18924 2.63599 9.39316C2.2808 9.60627 1.8201 9.49109 1.60699 9.13591C1.39388 8.78073 1.50906 8.32004 1.86424 8.10693C2.4449 7.75854 2.76727 7.48576 2.99171 7.23915C3.20783 7.00168 3.35325 6.76933 3.56717 6.42753L3.61464 6.35173C3.79224 6.06839 4.13597 5.93686 4.45735 6.02926ZM9 6.00006C8.6121 6.00006 8.2882 6.29585 8.25308 6.68215L8.00308 9.43213C7.98243 9.65928 8.06627 9.88348 8.23089 10.0414C8.39552 10.1992 8.62304 10.2736 8.84912 10.2435L10.2208 10.0606C11.0305 9.9526 11.75 10.5825 11.75 11.3994C11.75 12.1386 11.1375 12.75 10.3848 12.75C10.0188 12.75 9.66458 12.6039 9.40901 12.3484L9.03033 11.9697C8.73744 11.6768 8.26256 11.6768 7.96967 11.9697C7.67678 12.2626 7.67678 12.7374 7.96967 13.0303L8.34835 13.409C8.88843 13.9491 9.62553 14.25 10.3848 14.25C11.9524 14.25 13.25 12.9805 13.25 11.3994C13.25 9.67532 11.7315 8.34587 10.0226 8.57373L9.58196 8.63248L9.68491 7.50005H12.25C12.6642 7.50005 13 7.16427 13 6.75006C13 6.33585 12.6642 6.00006 12.25 6.00006H9ZM6.5 14C6.77614 14 7 13.7761 7 13.5C7 13.2239 6.77614 13 6.5 13C6.22386 13 6 13.2239 6 13.5C6 13.7761 6.22386 14 6.5 14ZM14.2197 10.2197C14.5126 9.92681 14.9874 9.92681 15.2803 10.2197L16 10.9394L16.7197 10.2197C17.0126 9.92681 17.4874 9.92681 17.7803 10.2197C18.0732 10.5126 18.0732 10.9875 17.7803 11.2804L17.0607 12L17.7803 12.7197C18.0732 13.0126 18.0732 13.4874 17.7803 13.7803C17.4874 14.0732 17.0126 14.0732 16.7197 13.7803L16 13.0607L15.2803 13.7803C14.9874 14.0732 14.5126 14.0732 14.2197 13.7803C13.9268 13.4874 13.9268 13.0126 14.2197 12.7197L14.9393 12L14.2197 11.2804C13.9268 10.9875 13.9268 10.5126 14.2197 10.2197Z" fill="#212121"/>
</svg>

<svg xmlns="http://www.w3.org/2000/svg" width="20" height="20"><path d="M4.457 6.03A.75.75 0 0 1 5 6.75v6.5a.75.75 0 0 1-1.5 0V8.805a8.075 8.075 0 0 1-.864.588.75.75 0 0 1-.772-1.286c.58-.348.903-.621 1.128-.868.216-.237.361-.47.575-.811l.048-.076a.75.75 0 0 1 .842-.323ZM9 6a.75.75 0 0 0-.747.682l-.25 2.75a.75.75 0 0 0 .846.811l1.372-.182a1.35 1.35 0 0 1 1.529 1.338c0 .74-.613 1.351-1.365 1.351-.366 0-.72-.146-.976-.402l-.379-.378a.75.75 0 0 0-1.06 1.06l.378.379c.54.54 1.278.841 2.037.841 1.567 0 2.865-1.27 2.865-2.85a2.85 2.85 0 0 0-3.227-2.826l-.441.058.103-1.132h2.565a.75.75 0 0 0 0-1.5H9Zm-2.5 8a.5.5 0 1 0 0-1 .5.5 0 0 0 0 1Zm7.72-3.78a.75.75 0 0 1 1.06 0l.72.72.72-.72a.75.75 0 1 1 1.06 1.06l-.72.72.72.72a.75.75 0 1 1-1.06 1.06l-.72-.72-.72.72a.75.75 0 1 1-1.06-1.06l.72-.72-.72-.72a.75.75 0 0 1 0-1.06Z"/></svg>
